ui/StatusQ/src/assets/img/icons/group-chat.svg

<svg fill="none" height="24" viewBox="0 0 24 24" width="24" xmlns="http://www.w3.org/2000/svg"><g fill="#000"><path clip-rule="evenodd" d="m14.2516 12.4656c.2421-.1223.5419-.0586.7191.1467.7335.8498 1.8186 1.3877 3.0293 1.3877 2.2091 0 4-1.7909 4-4 0-2.20914-1.7909-4-4-4-.2938 0-.5801.03167-.8559.09177-.2649.05774-.543-.07088-.6637-.31369-.8181-1.64652-2.5171-2.77808-4.4804-2.77808s-3.66231 1.13156-4.48042 2.77808c-.12064.24281-.3988.37144-.66371.31369-.27574-.0601-.56211-.09177-.85587-.09177-2.20914 0-4 1.79086-4 4 0 2.2091 1.79086 4 4 4 1.21068 0 2.29574-.5379 3.02925-1.3877.17722-.2053.47708-.269.71917-.1467.67668.3418 1.44168.5344 2.25158.5344s1.5749-.1926 2.2516-.5344zm1.2484-4.4656c0 1.933-1.567 3.5-3.5 3.5s-3.5-1.567-3.5-3.5 1.567-3.5 3.5-3.5 3.5 1.567 3.5 3.5zm.5355 2.9526c-.1235.1686-.1507.3969-.0239.563.4568.5984 1.1775.9844 1.9884.9844 1.3807 0 2.5-1.1193 2.5-2.5 0-1.38071-1.1193-2.5-2.5-2.5-.2569 0-.5047.03875-.738.11071-.1659.05117-.262.21573-.262.38929 0 1.10444-.3581 2.1252-.9645 2.9526zm-9.29748-3.34188c-.23327-.07197-.48112-.11072-.73802-.11072-1.38071 0-2.5 1.11929-2.5 2.5 0 1.3807 1.11929 2.5 2.5 2.5.81088 0 1.53159-.3861 1.98837-.9844.12678-.1661.09962-.3944-.02389-.563-.6064-.8274-.96448-1.84817-.96448-2.9526 0-.17356-.09613-.33811-.26198-.38928z" fill-rule="evenodd"/><path d="m5.14735 21.0368c.38363.0959.77209-.1227.93627-.4825 1.02428-2.2444 3.28819-3.8043 5.91638-3.8043 2.6684 0 4.9613 1.6079 5.9625 3.9077.1664.3821.5853.6086.9831.4843.393-.1228.6166-.5414.4605-.9224-1.1942-2.9157-4.0603-4.9696-7.4061-4.9696-3.29596 0-6.1264 1.9932-7.35166 4.8401-.17205.3997.07681.8412.49901.9467z"/></g></svg>

<svg width="24" height="24" viewBox="0 0 24 24" fill="none" xmlns="http://www.w3.org/2000/svg">
<path fill-rule="evenodd" clip-rule="evenodd" d="M14.2516 12.4656C14.4937 12.3433 14.7935 12.407 14.9707 12.6123C15.7042 13.4621 16.7893 14 18 14C20.2091 14 22 12.2091 22 10C22 7.79086 20.2091 6 18 6C17.7062 6 17.4199 6.03167 17.1441 6.09177C16.8792 6.14951 16.6011 6.02089 16.4804 5.77808C15.6623 4.13156 13.9633 3 12 3C10.0367 3 8.33769 4.13156 7.51958 5.77808C7.39894 6.02089 7.12078 6.14952 6.85587 6.09177C6.58013 6.03167 6.29376 6 6 6C3.79086 6 2 7.79086 2 10C2 12.2091 3.79086 14 6 14C7.21068 14 8.29574 13.4621 9.02925 12.6123C9.20647 12.407 9.50633 12.3433 9.74842 12.4656C10.4251 12.8074 11.1901 13 12 13C12.8099 13 13.5749 12.8074 14.2516 12.4656ZM15.5 8C15.5 9.933 13.933 11.5 12 11.5C10.067 11.5 8.5 9.933 8.5 8C8.5 6.067 10.067 4.5 12 4.5C13.933 4.5 15.5 6.067 15.5 8ZM16.0355 10.9526C15.912 11.1212 15.8848 11.3495 16.0116 11.5156C16.4684 12.114 17.1891 12.5 18 12.5C19.3807 12.5 20.5 11.3807 20.5 10C20.5 8.61929 19.3807 7.5 18 7.5C17.7431 7.5 17.4953 7.53875 17.262 7.61071C17.0961 7.66188 17 7.82644 17 8C17 9.10444 16.6419 10.1252 16.0355 10.9526ZM6.73802 7.61072C6.50475 7.53875 6.2569 7.5 6 7.5C4.61929 7.5 3.5 8.61929 3.5 10C3.5 11.3807 4.61929 12.5 6 12.5C6.81088 12.5 7.53159 12.1139 7.98837 11.5156C8.11515 11.3495 8.08799 11.1212 7.96448 10.9526C7.35808 10.1252 7 9.10443 7 8C7 7.82644 6.90387 7.66189 6.73802 7.61072Z" fill="black"/>
<path d="M5.14735 21.0368C5.53098 21.1327 5.91944 20.9141 6.08362 20.5543C7.1079 18.3099 9.37181 16.75 12 16.75C14.6684 16.75 16.9613 18.3579 17.9625 20.6577C18.1289 21.0398 18.5478 21.2663 18.9456 21.142C19.3386 21.0192 19.5622 20.6006 19.4061 20.2196C18.2119 17.3039 15.3458 15.25 12 15.25C8.70404 15.25 5.8736 17.2432 4.64834 20.0901C4.47629 20.4898 4.72515 20.9313 5.14735 21.0368Z" fill="black"/>
</svg>
